src/assets/svg/add.svg

<svg aria-hidden="true" focusable="false" data-prefix="fal" data-icon="plus" role="img" xmlns="http://www.w3.org/2000/svg" viewBox="0 0 384 512" class="svg-inline--fa fa-plus fa-w-12 fa-3x"><path fill="currentColor" d="M376 232H216V72c0-4.42-3.58-8-8-8h-32c-4.42 0-8 3.58-8 8v160H8c-4.42 0-8 3.58-8 8v32c0 4.42 3.58 8 8 8h160v160c0 4.42 3.58 8 8 8h32c4.42 0 8-3.58 8-8V280h160c4.42 0 8-3.58 8-8v-32c0-4.42-3.58-8-8-8z" class=""></path></svg>

<?xml version="1.0" encoding="UTF-8" standalone="no"?><!-- Generator: Gravit.io --><svg xmlns="http://www.w3.org/2000/svg" xmlns:xlink="http://www.w3.org/1999/xlink" style="isolation:isolate" viewBox="0 0 384 512" width="384pt" height="512pt"><defs><clipPath id="_clipPath_nDG7rtKWQlA1pwzpk04LAtm84L7DUZUr"><rect width="384" height="512"/></clipPath></defs><g clip-path="url(#_clipPath_nDG7rtKWQlA1pwzpk04LAtm84L7DUZUr)"><path d=" M 376 232 L 216 232 L 216 72 C 216 67.58 212.42 64 208 64 L 176 64 C 171.58 64 168 67.58 168 72 L 168 232 L 8 232 C 3.58 232 0 235.58 0 240 L 0 272 C 0 276.42 3.58 280 8 280 L 168 280 L 168 440 C 168 444.42 171.58 448 176 448 L 208 448 C 212.42 448 216 444.42 216 440 L 216 280 L 376 280 C 380.42 280 384 276.42 384 272 L 384 240 C 384 235.58 380.42 232 376 232 Z " fill="rgb(255,255,255)"/></g></svg>
